modules/zondicons/icons/bug.svg

<?xml version="1.0" encoding="UTF-8" standalone="no"?>
<svg width="20px" height="20px" viewBox="0 0 20 20" version="1.1" xmlns="http://www.w3.org/2000/svg" xmlns:xlink="http://www.w3.org/1999/xlink">
    <!-- Generator: Sketch 3.7.2 (28276) - http://www.bohemiancoding.com/sketch -->
    <title>bug</title>
    <desc>Created with Sketch.</desc>
    <defs></defs>
    <g id="Page-1" stroke="none" stroke-width="1" fill="none" fill-rule="evenodd">
        <g id="bug" fill="#000000">
            <path d="M15.3045988,14.8903852 C15.6126191,14.3102059 15.8280494,13.673533 15.9310427,13 L18.9970707,13 C19.5621186,13 20,12.5522847 20,12 C20,11.4438648 19.5509732,11 18.9970707,11 L16,11 L16,8.41421356 L19.0722962,5.3419174 C19.4582903,4.95592323 19.4615921,4.31945648 19.0710678,3.92893219 C18.6778209,3.53568523 18.0479285,3.53785794 17.6580826,3.92770383 L15.5608261,6.02496034 L4.4391739,6.02496034 L2.3419174,3.92770383 C1.95592323,3.54170967 1.31945648,3.5384079 0.928932188,3.92893219 C0.535685233,4.32217914 0.537857944,4.95207151 0.927703834,5.3419174 L4,8.41421356 L4,11 L1.00292933,11 C0.437881351,11 0,11.4477153 0,12 C0,12.5561352 0.449026756,13 1.00292933,13 L4.06906435,13 C4.17211321,13.6730161 4.38756247,14.3096774 4.69570598,14.8900805 L1.92770383,17.6580826 C1.54170967,18.0440768 1.5384079,18.6805435 1.92893219,19.0710678 C2.32217914,19.4643148 2.95207151,19.4621421 3.3419174,19.0722962 L5.92661633,16.4875972 C6.76466839,17.2628271 7.82437108,17.8025933 9,18.0001127 L9,9.03992409 C9,8.48397016 9.44386482,8.03328045 10,8.03328045 C10.5522847,8.03328045 11,8.4909374 11,9.03992409 L11,18.0000473 C12.1747032,17.8025694 13.2348613,17.26319 14.0735097,16.4877232 L16.6580826,19.0722962 C17.0440768,19.4582903 17.6805435,19.4615921 18.0710678,19.0710678 C18.4643148,18.6778209 18.4621421,18.0479285 18.0722962,17.6580826 L15.3045988,14.8903852 L15.3045988,14.8903852 Z M15,5 C15,2.23857625 12.7614237,0 10,0 C7.23857625,0 5,2.23857625 5,5 L15,5 Z" id="Combined-Shape"></path>
        </g>
    </g>
</svg>

<svg width="20" height="20" viewBox="0 0 20 20" xmlns="http://www.w3.org/2000/svg"><path d="M15.305 14.89c.308-.58.523-1.216.626-1.89h3.066A.994.994 0 0 0 20 12c0-.556-.449-1-1.003-1H16V8.414l3.072-3.072a1.003 1.003 0 0 0 0-1.413.997.997 0 0 0-1.414-.001l-2.097 2.097H4.439L2.342 3.928a1.003 1.003 0 0 0-1.413 0 .997.997 0 0 0-.001 1.414L4 8.414V11H1.003A.994.994 0 0 0 0 12c0 .556.449 1 1.003 1h3.066c.103.673.319 1.31.627 1.89l-2.768 2.768a1.003 1.003 0 0 0 0 1.413.997.997 0 0 0 1.414.001l2.585-2.584A5.985 5.985 0 0 0 9 18V9.04a1 1 0 0 1 1-1.007c.552 0 1 .458 1 1.007V18a5.989 5.989 0 0 0 3.074-1.512l2.584 2.584c.386.386 1.023.39 1.413 0a.997.997 0 0 0 .001-1.414l-2.767-2.768zM15 5A5 5 0 0 0 5 5h10z" fill="#000" fill-rule="evenodd"/></svg>
